X: 305546
M: 6/8
L: 1/8
K: D
(d/B/) |\
|: (f/g/) |\
afd dfd | afd d2 (f/g/) | afd dfd | gee e2 (f/g/) |\
afd dfd | afd efg | fed BdB | AFD D2 :|


